packages/core/src/svgs/ordi.svg

<svg width="24" height="24" viewBox="0 0 24 24" fill="none" xmlns="http://www.w3.org/2000/svg">
<g clip-path="url(#clip0_31_15564)">
<path d="M0 0H24V24H0V0Z" fill="#181B1E"/>
<path d="M6.92136 6H9.85707V7.71429H7.28564V11.64L6.85707 11.94V12.4114L7.28564 12.69V16.2857H9.85707V18H6.92136L5.57136 16.2857V12.8571H4.28564V11.1429H5.57136V7.71429L6.92136 6ZM17.0785 6H14.1428V7.71429H16.7142V11.64L17.1428 11.94V12.4114L16.7142 12.69V16.2857H14.1428V18H17.0785L18.4285 16.2857V12.8571H19.7142V11.1429H18.4285V7.71429L17.0785 6Z" fill="#FEFEFE"/>
<path fill-rule="evenodd" clip-rule="evenodd" d="M11.9999 14.5716C12.3376 14.5716 12.672 14.5051 12.9839 14.3758C13.2959 14.2466 13.5794 14.0572 13.8182 13.8184C14.0569 13.5796 14.2464 13.2962 14.3756 12.9842C14.5048 12.6722 14.5713 12.3378 14.5713 12.0001C14.5713 11.6625 14.5048 11.3281 14.3756 11.0161C14.2464 10.7041 14.0569 10.4206 13.8182 10.1819C13.5794 9.94309 13.2959 9.75368 12.9839 9.62445C12.672 9.49522 12.3376 9.42871 11.9999 9.42871C11.3179 9.42871 10.6639 9.69963 10.1816 10.1819C9.69938 10.6641 9.42847 11.3182 9.42847 12.0001C9.42847 12.6821 9.69938 13.3362 10.1816 13.8184C10.6639 14.3007 11.3179 14.5716 11.9999 14.5716ZM11.9999 13.2859C12.3409 13.2859 12.6679 13.1504 12.909 12.9093C13.1502 12.6682 13.2856 12.3411 13.2856 12.0001C13.2856 11.6591 13.1502 11.3321 12.909 11.091C12.6679 10.8499 12.3409 10.7144 11.9999 10.7144C11.6589 10.7144 11.3319 10.8499 11.0908 11.091C10.8496 11.3321 10.7142 11.6591 10.7142 12.0001C10.7142 12.3411 10.8496 12.6682 11.0908 12.9093C11.3319 13.1504 11.6589 13.2859 11.9999 13.2859Z" fill="#FEFEFE"/>
</g>
<defs>
<clipPath id="clip0_31_15564">
<rect width="24" height="24" fill="white"/>
</clipPath>
</defs>
</svg>

<svg xmlns="http://www.w3.org/2000/svg" width="24" height="24" fill="none" viewBox="0 0 24 24"><g clip-path="url(#a)"><path fill="#181B1E" d="M0 0h24v24H0z"/><path fill="#FEFEFE" d="M6.921 6h2.936v1.714H7.286v3.926l-.429.3v.471l.429.279v3.596h2.571V18H6.921l-1.35-1.714v-3.429H4.286v-1.714H5.57V7.714zm10.157 0h-2.935v1.714h2.571v3.926l.429.3v.471l-.429.279v3.596h-2.571V18h2.935l1.35-1.714v-3.429h1.286v-1.714H18.43V7.714z"/><path fill="#FEFEFE" fill-rule="evenodd" d="M12 14.572a2.57 2.57 0 0 0 2.376-3.556A2.571 2.571 0 1 0 12 14.572m0-1.286a1.286 1.286 0 1 0 0-2.571 1.286 1.286 0 0 0 0 2.57" clip-rule="evenodd"/></g><defs><clipPath id="a"><path fill="#fff" d="M0 0h24v24H0z"/></clipPath></defs></svg>
